X:1
T:title
M:4/4
Q:120
L:1/8
R:Reel
K:C
E4 _b3 ^g' | c4a _b'G ^G |  ^f'2 _g4 _d'2 | E ^D3c _AB2 |  _d'3 _g'2 ^d _G _a | d'2e' ^ce2a _a |  ^d4 _d' _B _F _D |  _f'3 ^A4C | 